dist/img/icons/Header/intro-card/social-linkedin.svg

<svg width="23" height="21" viewBox="0 0 23 21" fill="none" xmlns="http://www.w3.org/2000/svg">
<path fill-rule="evenodd" clip-rule="evenodd" d="M20.2425 0H1.87982C0.876868 0 0 0.672621 0 1.59614V18.7373C0 19.6662 0.876868 20.4936 1.87982 20.4936H20.2367C21.2454 20.4936 22.0019 19.6608 22.0019 18.7373V1.59614C22.0077 0.672621 21.2454 0 20.2425 0ZM6.82008 17.0824H3.66794V7.95401H6.82008V17.0824ZM5.35291 6.56606H5.32998C4.3213 6.56606 3.66794 5.86675 3.66794 4.99128C3.66794 4.09979 4.33849 3.41649 5.3701 3.41649C6.40171 3.41649 7.03214 4.09445 7.05506 4.99128C7.05506 5.86675 6.40171 6.56606 5.35291 6.56606ZM18.3397 17.0824H15.1876V12.0912C15.1876 10.8954 14.7291 10.0786 13.5886 10.0786C12.7174 10.0786 12.2016 10.6285 11.9724 11.1623C11.8864 11.3545 11.8635 11.6161 11.8635 11.883V17.0824H8.71137V7.95401H11.8635V9.22452C12.322 8.61596 13.0384 7.74048 14.7062 7.74048C16.7751 7.74048 18.3397 9.01099 18.3397 11.7495V17.0824Z" fill="white"/>
</svg>

<svg width="23" height="21" fill="none" xmlns="http://www.w3.org/2000/svg"><path fill-rule="evenodd" clip-rule="evenodd" d="M20.242 0H1.88C.877 0 0 .673 0 1.596v17.141c0 .93.877 1.757 1.88 1.757h18.357a1.769 1.769 0 0 0 1.765-1.757V1.597C22.008.672 21.245 0 20.242 0ZM6.82 17.082H3.668V7.954H6.82v9.128ZM5.353 6.566H5.33c-1.009 0-1.662-.7-1.662-1.575 0-.891.67-1.575 1.702-1.575s1.662.678 1.685 1.575c0 .876-.653 1.575-1.702 1.575ZM18.34 17.082h-3.152v-4.99c0-1.197-.459-2.013-1.6-2.013-.87 0-1.386.55-1.616 1.083-.086.192-.108.454-.108.721v5.2H8.71v-9.13h3.152v1.27c.459-.608 1.175-1.484 2.843-1.484 2.07 0 3.634 1.271 3.634 4.01v5.332Z" fill="#fff"/></svg>
